dist/img/svg/services/conditioning/multi-split.svg

<svg width="20" height="18" viewBox="0 0 20 18" fill="none" xmlns="http://www.w3.org/2000/svg">
<g clip-path="url(#clip0_38_1505)">
<path fill-rule="evenodd" clip-rule="evenodd" d="M12.0746 10.668C12.0746 10.9909 12.3471 11.2526 12.6833 11.2526H14.3406C14.6767 11.2526 14.9492 10.9909 14.9492 10.668V10.0614C14.9492 9.73853 14.6767 9.47676 14.3406 9.47676H12.6833C12.3471 9.47676 12.0746 9.73851 12.0746 10.0614V10.668ZM12.6833 10.6898C12.6707 10.6898 12.6605 10.68 12.6605 10.668V10.0614C12.6605 10.0494 12.6707 10.0396 12.6833 10.0396H14.3406C14.3531 10.0396 14.3633 10.0494 14.3633 10.0614V10.668C14.3633 10.68 14.3531 10.6898 14.3406 10.6898H12.6833Z" fill="#78C081"/>
<path fill-rule="evenodd" clip-rule="evenodd" d="M15.626 15.52C15.626 15.6754 15.7571 15.8014 15.9189 15.8014H16.2117H16.866C17.2021 15.8014 17.4746 15.5397 17.4746 15.2168V14.0038C17.4746 13.6808 17.2021 13.419 16.866 13.419H16.2117H15.9189C15.7571 13.419 15.626 13.545 15.626 13.7005C15.626 13.8559 15.7571 13.9819 15.9189 13.9819H16.2117H16.866C16.8785 13.9819 16.8887 13.9917 16.8887 14.0038V15.2168C16.8887 15.2288 16.8785 15.2386 16.866 15.2386H16.2117H15.9189C15.7571 15.2386 15.626 15.3646 15.626 15.52Z" fill="#78C081"/>
<path fill-rule="evenodd" clip-rule="evenodd" d="M12.0746 13.094C12.0746 13.4169 12.3471 13.6787 12.6833 13.6787H14.3406C14.6767 13.6787 14.9492 13.4169 14.9492 13.094V12.4875C14.9492 12.1646 14.6767 11.9028 14.3406 11.9028H12.6833C12.3471 11.9028 12.0746 12.1645 12.0746 12.4875V13.094ZM12.6833 13.1158C12.6707 13.1158 12.6605 13.106 12.6605 13.094V12.4875C12.6605 12.4754 12.6707 12.4657 12.6833 12.4657H14.3406C14.3531 12.4657 14.3633 12.4754 14.3633 12.4875V13.094C14.3633 13.106 14.3531 13.1158 14.3406 13.1158H12.6833Z" fill="#78C081"/>
<path fill-rule="evenodd" clip-rule="evenodd" d="M5.05081 17.3395C5.05081 17.7043 5.35869 18 5.73838 18H6.84323C7.22298 18 7.53081 17.7043 7.53081 17.3395V16.7869V16.5056C7.53081 16.3501 7.39964 16.2241 7.23784 16.2241C7.07604 16.2241 6.94487 16.3501 6.94487 16.5056V16.7869V17.3395C6.94487 17.3934 6.89941 17.4371 6.84323 17.4371H5.73838C5.68222 17.4371 5.63674 17.3934 5.63674 17.3395V16.7869V16.5056C5.63674 16.3501 5.50558 16.2241 5.34377 16.2241C5.18197 16.2241 5.05081 16.3501 5.05081 16.5056V16.7869V17.3395Z" fill="#78C081"/>
<path fill-rule="evenodd" clip-rule="evenodd" d="M13.1568 17.4371C13.1006 17.4371 13.0551 17.3934 13.0551 17.3395V16.7869V16.5056C13.0551 16.3501 12.924 16.2241 12.7621 16.2241C12.6003 16.2241 12.4692 16.3501 12.4692 16.5056V16.7869V17.3395C12.4692 17.7044 12.7771 18 13.1568 18H14.2616C14.6414 18 14.9492 17.7043 14.9492 17.3395V16.7869V16.5056C14.9492 16.3501 14.818 16.2241 14.6562 16.2241C14.4944 16.2241 14.3632 16.3501 14.3632 16.5056V16.7869V17.3395C14.3632 17.3934 14.3178 17.4371 14.2616 17.4371H13.1568Z" fill="#78C081"/>
<path fill-rule="evenodd" clip-rule="evenodd" d="M5.05083 12.5254C5.05083 14.2091 6.47165 15.574 8.22431 15.574C9.977 15.574 11.3978 14.2091 11.3978 12.5254C11.3978 10.8417 9.97701 9.47676 8.22431 9.47676C6.47164 9.47676 5.05083 10.8417 5.05083 12.5254ZM8.22431 15.0111C6.79525 15.0111 5.63677 13.8982 5.63677 12.5254C5.63677 11.1525 6.79525 10.0396 8.22431 10.0396C9.6534 10.0396 10.8119 11.1525 10.8119 12.5254C10.8119 13.8982 9.65341 15.0111 8.22431 15.0111Z" fill="#78C081"/>
<path fill-rule="evenodd" clip-rule="evenodd" d="M8.22431 15.574C8.38611 15.574 8.51729 15.448 8.51729 15.2925V9.75819C8.51729 9.60276 8.38611 9.47676 8.22431 9.47676C8.06251 9.47676 7.93135 9.60276 7.93135 9.75819V15.2925C7.93135 15.448 8.06251 15.574 8.22431 15.574Z" fill="#78C081"/>
<path fill-rule="evenodd" clip-rule="evenodd" d="M5.05083 12.5254C5.05083 12.6808 5.18198 12.8068 5.34378 12.8068H11.1048C11.2666 12.8068 11.3978 12.6808 11.3978 12.5254C11.3978 12.37 11.2666 12.2439 11.1048 12.2439H5.34378C5.18198 12.2439 5.05083 12.37 5.05083 12.5254Z" fill="#78C081"/>
<path fill-rule="evenodd" clip-rule="evenodd" d="M5.98032 14.6811C6.09473 14.791 6.28023 14.791 6.39464 14.6811L10.4684 10.7677C10.5828 10.6578 10.5828 10.4796 10.4684 10.3697C10.3539 10.2598 10.1684 10.2598 10.054 10.3697L5.98032 14.2831C5.86591 14.393 5.86591 14.5712 5.98032 14.6811Z" fill="#78C081"/>
<path fill-rule="evenodd" clip-rule="evenodd" d="M10.4683 14.6811C10.5828 14.5712 10.5828 14.393 10.4683 14.2831L6.39464 10.3697C6.28023 10.2598 6.09473 10.2598 5.98032 10.3697C5.86591 10.4796 5.86591 10.6578 5.98032 10.7677L10.054 14.6811C10.1684 14.791 10.3539 14.791 10.4683 14.6811Z" fill="#78C081"/>
<path fill-rule="evenodd" clip-rule="evenodd" d="M8.42202 5.10125C8.57778 5.05917 8.66854 4.90376 8.62473 4.75413L8.56463 4.54882L8.35055 3.81757C8.26713 3.53283 7.99674 3.33588 7.68864 3.33588H1.97298C1.66489 3.33588 1.39449 3.53276 1.31111 3.81756L1.097 4.54882L1.03689 4.75412C0.993079 4.90375 1.08383 5.05916 1.23959 5.10125C1.26309 5.1076 1.28674 5.11101 1.31009 5.1117C1.3161 5.11188 1.32209 5.11188 1.32805 5.1117C1.45249 5.10801 1.56544 5.02777 1.60094 4.90653L1.70567 4.54882L1.87516 3.96997C1.88749 3.92786 1.92747 3.89876 1.97298 3.89876H7.68864C7.73411 3.89876 7.77412 3.92782 7.7865 3.96996L7.95596 4.54882L8.06068 4.90652C8.09617 5.02776 8.20912 5.10801 8.33357 5.1117C8.33953 5.11188 8.34552 5.11188 8.35153 5.1117C8.37488 5.11101 8.39852 5.1076 8.42202 5.10125Z" fill="#78C081"/>
<path fill-rule="evenodd" clip-rule="evenodd" d="M3.19622 1.49457C3.19622 1.65001 3.32739 1.77601 3.48919 1.77601H6.17243C6.33423 1.77601 6.4654 1.65001 6.4654 1.49457C6.4654 1.33914 6.33423 1.21313 6.17243 1.21313H3.48919C3.32739 1.21313 3.19622 1.33914 3.19622 1.49457Z" fill="#78C081"/>
<path d="M7.75082 1.49457C7.75082 1.66205 7.60949 1.79781 7.43512 1.79781C7.26082 1.79781 7.11945 1.66205 7.11945 1.49457C7.11945 1.32706 7.26082 1.19129 7.43512 1.19129C7.60949 1.19129 7.75082 1.32706 7.75082 1.49457Z" fill="#78C081"/>
<path d="M2.54215 1.49457C2.54215 1.66205 2.40082 1.79781 2.22649 1.79781C2.05215 1.79781 1.91079 1.66205 1.91079 1.49457C1.91079 1.32706 2.05215 1.19129 2.22649 1.19129C2.40082 1.19129 2.54215 1.32706 2.54215 1.49457Z" fill="#78C081"/>
<path fill-rule="evenodd" clip-rule="evenodd" d="M18.7604 5.10125C18.9162 5.05916 19.0069 4.90375 18.9631 4.75412L18.903 4.54881L18.6889 3.81758C18.6055 3.53277 18.3351 3.33588 18.027 3.33588H12.3114C12.0033 3.33588 11.7329 3.53275 11.6495 3.81756L11.4354 4.54881L11.3753 4.75412C11.3315 4.90375 11.4222 5.05916 11.578 5.10125C11.6014 5.10757 11.6249 5.11098 11.6482 5.11169C11.6544 5.11188 11.6606 5.11188 11.6667 5.11169C11.7911 5.10788 11.9039 5.02767 11.9393 4.90653L12.0441 4.54881L12.2135 3.96997C12.2259 3.92788 12.2659 3.89876 12.3114 3.89876H18.027C18.0725 3.89876 18.1125 3.92785 18.1248 3.96996L18.2943 4.54881L18.3991 4.90653C18.4345 5.02767 18.5473 5.10788 18.6717 5.11169C18.6778 5.11188 18.684 5.11188 18.6902 5.11169C18.7135 5.11098 18.737 5.10757 18.7604 5.10125Z" fill="#78C081"/>
<path fill-rule="evenodd" clip-rule="evenodd" d="M13.5346 1.49457C13.5346 1.65001 13.6658 1.77601 13.8276 1.77601H16.5108C16.6726 1.77601 16.8038 1.65001 16.8038 1.49457C16.8038 1.33914 16.6726 1.21313 16.5108 1.21313H13.8276C13.6658 1.21313 13.5346 1.33914 13.5346 1.49457Z" fill="#78C081"/>
<path d="M18.0892 1.49457C18.0892 1.66205 17.9479 1.79781 17.7735 1.79781C17.5992 1.79781 17.4579 1.66205 17.4579 1.49457C17.4579 1.32706 17.5992 1.19129 17.7735 1.19129C17.9479 1.19129 18.0892 1.32706 18.0892 1.49457Z" fill="#78C081"/>
<path d="M12.8806 1.49457C12.8806 1.66205 12.7392 1.79781 12.5649 1.79781C12.3905 1.79781 12.2492 1.66205 12.2492 1.49457C12.2492 1.32706 12.3905 1.19129 12.5649 1.19129C12.7392 1.19129 12.8806 1.32706 12.8806 1.49457Z" fill="#78C081"/>
<path fill-rule="evenodd" clip-rule="evenodd" d="M8.97408 8.82662C9.13588 8.82662 9.26705 8.70061 9.26705 8.54518V8.26381V6.57405C9.26705 6.20926 8.9592 5.91353 8.57947 5.91353H7.27732C7.22113 5.91353 7.17568 5.86983 7.17568 5.81593V5.1117V4.83032C7.17568 4.67489 7.04451 4.54888 6.88271 4.54888C6.72091 4.54888 6.58974 4.67489 6.58974 4.83032V5.1117V5.81593C6.58974 6.18073 6.89757 6.47641 7.27732 6.47641H8.57947C8.63559 6.47641 8.68111 6.52013 8.68111 6.57405V8.26381V8.54518C8.68111 8.70061 8.81227 8.82662 8.97408 8.82662Z" fill="#78C081"/>
<path fill-rule="evenodd" clip-rule="evenodd" d="M11.026 8.82662C11.1878 8.82662 11.3189 8.70061 11.3189 8.54518V8.26381V6.57405C11.3189 6.52009 11.3644 6.47641 11.4205 6.47641H12.7227C13.1024 6.47641 13.4103 6.18073 13.4103 5.81593V5.11169V4.83032C13.4103 4.67489 13.2791 4.54888 13.1173 4.54888C12.9555 4.54888 12.8243 4.67489 12.8243 4.83032V5.11169V5.81593C12.8243 5.86983 12.7789 5.91353 12.7227 5.91353H11.4205C11.0408 5.91353 10.733 6.2093 10.733 6.57405V8.26381V8.54518C10.733 8.70061 10.8642 8.82662 11.026 8.82662Z" fill="#78C081"/>
<path fill-rule="evenodd" clip-rule="evenodd" d="M15.9189 15.8014C15.7571 15.8014 15.626 15.6754 15.626 15.52C15.626 15.3646 15.7571 15.2386 15.9189 15.2386H16.2117V13.9819H15.9189C15.7571 13.9819 15.626 13.8559 15.626 13.7005C15.626 13.545 15.7571 13.419 15.9189 13.419H16.2117V9.15166C16.2117 8.66114 15.7981 8.26381 15.2875 8.26381H11.3189V8.54518C11.3189 8.70061 11.1878 8.82662 11.026 8.82662C10.8642 8.82662 10.733 8.70061 10.733 8.54518V8.26381H9.26705V8.54518C9.26705 8.70061 9.13588 8.82662 8.97408 8.82662C8.81227 8.82662 8.68111 8.70061 8.68111 8.54518V8.26381H7.11952H4.71249C4.20186 8.26381 3.78827 8.66113 3.78827 9.15166V15.8991C3.78827 16.3896 4.20186 16.7869 4.71249 16.7869H5.05081V16.5056C5.05081 16.3501 5.18197 16.2241 5.34377 16.2241C5.50558 16.2241 5.63674 16.3501 5.63674 16.5056V16.7869H6.94487V16.5056C6.94487 16.3501 7.07604 16.2241 7.23784 16.2241C7.39964 16.2241 7.53081 16.3501 7.53081 16.5056V16.7869H12.4692V16.5056C12.4692 16.3501 12.6003 16.2241 12.7621 16.2241C12.924 16.2241 13.0551 16.3501 13.0551 16.5056V16.7869H14.3632V16.5056C14.3632 16.3501 14.4944 16.2241 14.6562 16.2241C14.818 16.2241 14.9492 16.3501 14.9492 16.5056V16.7869H15.2875C15.7981 16.7869 16.2117 16.3896 16.2117 15.8991V15.8014H15.9189ZM7.11952 8.82669H15.2875C15.4745 8.82669 15.6258 8.97199 15.6258 9.15166V15.8991C15.6258 16.0788 15.4745 16.2241 15.2875 16.2241H4.71249C4.52547 16.2241 4.37421 16.0787 4.37421 15.8991V9.15166C4.37421 8.972 4.52547 8.82669 4.71249 8.82669H7.11952Z" fill="#78C081"/>
<path d="M8.62473 4.75413C8.66854 4.90376 8.57778 5.05917 8.42202 5.10125C8.39852 5.1076 8.37488 5.11101 8.35153 5.1117H8.73711C9.24751 5.1117 9.66172 4.71462 9.66172 4.22385V0.888233C9.66172 0.397697 9.24774 9.44774e-06 8.73711 9.44774e-06H2.91016H0.924219C0.413861 9.44774e-06 0 0.397811 0 0.888233V4.22385C0 4.7145 0.414097 5.1117 0.924219 5.1117H1.31009C1.28674 5.11101 1.26309 5.1076 1.23959 5.10125C1.08383 5.05916 0.993079 4.90375 1.03689 4.75412L1.097 4.54882H0.924219C0.737466 4.54882 0.585938 4.40341 0.585938 4.22385V0.888233C0.585938 0.708453 0.737702 0.562889 0.924219 0.562889H2.91016H8.73711C8.92414 0.562889 9.07578 0.708567 9.07578 0.888233V4.22385C9.07578 4.40329 8.92437 4.54882 8.73711 4.54882H8.56463L8.62473 4.75413Z" fill="#78C081"/>
<path d="M8.06068 4.90652L7.95596 4.54882H1.70567L1.60094 4.90653C1.56544 5.02777 1.45249 5.10801 1.32805 5.1117H6.58974V4.83032C6.58974 4.67489 6.72091 4.54888 6.88271 4.54888C7.04451 4.54888 7.17568 4.67489 7.17568 4.83032V5.1117H8.33357C8.20912 5.10801 8.09617 5.02776 8.06068 4.90652Z" fill="#78C081"/>
<path d="M18.9631 4.75412C19.0069 4.90375 18.9162 5.05916 18.7604 5.10125C18.737 5.10757 18.7135 5.11098 18.6902 5.11169H19.0758C19.5859 5.11169 20 4.71454 20 4.22385V0.888223C20 0.39785 19.5862 0 19.0758 0H11.2629C10.7522 0 10.3383 0.397736 10.3383 0.888223V4.22385C10.3383 4.71466 10.7525 5.11169 11.2629 5.11169H11.6482C11.6249 5.11098 11.6014 5.10757 11.578 5.10125C11.4222 5.05916 11.3315 4.90375 11.3753 4.75412L11.4354 4.54881H11.2629C11.0756 4.54881 10.9242 4.40331 10.9242 4.22385V0.888223C10.9242 0.708583 11.0759 0.562879 11.2629 0.562879H19.0758C19.2623 0.562879 19.4141 0.70847 19.4141 0.888223V4.22385C19.4141 4.40342 19.2625 4.54881 19.0758 4.54881H18.903L18.9631 4.75412Z" fill="#78C081"/>
<path d="M18.3991 4.90653L18.2943 4.54881H17.4578H12.0441L11.9393 4.90653C11.9039 5.02767 11.7911 5.10788 11.6667 5.11169H12.8243V4.83032C12.8243 4.67489 12.9555 4.54888 13.1173 4.54888C13.2791 4.54888 13.4103 4.67489 13.4103 4.83032V5.11169H17.4578H18.6717C18.5473 5.10788 18.4345 5.02767 18.3991 4.90653Z" fill="#78C081"/>
</g>
<defs>
<clipPath id="clip0_38_1505">
<rect width="20" height="18" fill="white"/>
</clipPath>
</defs>
</svg>

<svg width="20" height="18" fill="none" xmlns="http://www.w3.org/2000/svg"><g clip-path="url(#clip0_38_1505)" fill="#78C081"><path fill-rule="evenodd" clip-rule="evenodd" d="M12.075 10.668c0 .323.272.585.608.585h1.658a.597.597 0 00.608-.585v-.607a.597.597 0 00-.608-.584h-1.658a.597.597 0 00-.608.584v.607zm.608.022a.022.022 0 01-.022-.022v-.607c0-.012.01-.021.022-.021h1.658c.012 0 .022.01.022.021v.607c0 .012-.01.022-.022.022h-1.658zm2.943 4.83c0 .155.131.281.293.281h.947a.597.597 0 00.609-.584v-1.213a.597.597 0 00-.609-.585h-.947a.287.287 0 00-.293.281c0 .156.131.282.293.282h.947c.012 0 .023.01.023.022v1.213c0 .012-.01.022-.023.022h-.947a.287.287 0 00-.293.281zm-3.551-2.426c0 .323.272.585.608.585h1.658a.597.597 0 00.608-.585v-.606a.597.597 0 00-.608-.585h-1.658a.597.597 0 00-.608.585v.606zm.608.022a.022.022 0 01-.022-.022v-.606c0-.013.01-.022.022-.022h1.658c.012 0 .022.01.022.022v.606c0 .012-.01.022-.022.022h-1.658zM5.05 17.34c0 .364.309.66.688.66h1.105c.38 0 .688-.296.688-.66v-.834a.287.287 0 00-.293-.282.287.287 0 00-.293.282v.833a.1.1 0 01-.102.098H5.738a.1.1 0 01-.101-.098v-.832a.287.287 0 00-.293-.282.287.287 0 00-.293.282v.832zm8.107.097a.1.1 0 01-.102-.098v-.832a.287.287 0 00-.293-.282.287.287 0 00-.293.282v.832c0 .365.308.661.688.661h1.105c.38 0 .687-.296.687-.66v-.834a.287.287 0 00-.293-.282.287.287 0 00-.293.282v.833a.1.1 0 01-.101.098h-1.105zM5.05 12.525c0 1.684 1.422 3.049 3.174 3.049 1.753 0 3.174-1.365 3.174-3.049 0-1.683-1.421-3.048-3.174-3.048-1.752 0-3.173 1.365-3.173 3.048zm3.174 2.486c-1.429 0-2.587-1.113-2.587-2.486 0-1.373 1.158-2.485 2.587-2.485 1.43 0 2.588 1.113 2.588 2.485 0 1.373-1.159 2.486-2.588 2.486z"/><path fill-rule="evenodd" clip-rule="evenodd" d="M8.224 15.574a.287.287 0 00.293-.281V9.758a.287.287 0 00-.293-.281.287.287 0 00-.293.281v5.535c0 .155.132.281.293.281z"/><path fill-rule="evenodd" clip-rule="evenodd" d="M5.05 12.525c0 .156.132.282.294.282h5.76a.287.287 0 00.294-.282.287.287 0 00-.293-.281H5.344a.287.287 0 00-.293.281z"/><path fill-rule="evenodd" clip-rule="evenodd" d="M5.98 14.681c.115.11.3.11.415 0l4.073-3.913a.274.274 0 000-.398.302.302 0 00-.414 0L5.98 14.283a.274.274 0 000 .398z"/><path fill-rule="evenodd" clip-rule="evenodd" d="M10.468 14.681a.274.274 0 000-.398L6.395 10.37a.302.302 0 00-.415 0 .274.274 0 000 .398l4.074 3.913a.3.3 0 00.414 0zm-2.046-9.58a.28.28 0 00.203-.347l-.06-.205-.214-.731a.684.684 0 00-.662-.482H1.973a.684.684 0 00-.662.482l-.214.73-.06.206a.28.28 0 00.203.347.305.305 0 00.088.01.291.291 0 00.273-.204l.105-.358.17-.579a.101.101 0 01.097-.071h5.716c.045 0 .085.029.098.071l.169.579.105.358a.291.291 0 00.29.205.305.305 0 00.071-.01zM3.196 1.495c0 .155.131.281.293.281h2.683a.287.287 0 00.293-.281.287.287 0 00-.293-.282H3.49a.287.287 0 00-.293.282z"/><path d="M7.75 1.495a.31.31 0 01-.315.303.31.31 0 01-.316-.303.31.31 0 01.316-.304.31.31 0 01.316.304zm-5.208 0a.31.31 0 01-.316.303.31.31 0 01-.315-.303.31.31 0 01.315-.304.31.31 0 01.316.304z"/><path fill-rule="evenodd" clip-rule="evenodd" d="M18.76 5.101a.28.28 0 00.203-.347l-.06-.205-.214-.731a.684.684 0 00-.662-.482h-5.716a.684.684 0 00-.662.482l-.214.73-.06.206a.28.28 0 00.203.347.304.304 0 00.089.01.291.291 0 00.272-.204l.105-.358.17-.579a.101.101 0 01.097-.071h5.716c.046 0 .085.029.098.071l.17.579.104.358a.291.291 0 00.291.205.304.304 0 00.07-.01zm-5.225-3.606c0 .155.13.281.293.281h2.683a.287.287 0 00.293-.281.287.287 0 00-.293-.282h-2.683a.287.287 0 00-.293.282z"/><path d="M18.09 1.495a.31.31 0 01-.317.303.31.31 0 01-.315-.303.31.31 0 01.316-.304.31.31 0 01.315.304zm-5.21 0a.31.31 0 01-.315.303.31.31 0 01-.316-.303.31.31 0 01.316-.304.31.31 0 01.316.304z"/><path fill-rule="evenodd" clip-rule="evenodd" d="M8.974 8.827a.287.287 0 00.293-.282V6.574a.674.674 0 00-.688-.66H7.277a.1.1 0 01-.101-.098V4.83a.287.287 0 00-.293-.281.287.287 0 00-.293.281v.986c0 .365.308.66.687.66H8.58a.1.1 0 01.102.098v1.971c0 .156.131.282.293.282zm2.052 0a.287.287 0 00.293-.282V6.574a.1.1 0 01.101-.098h1.303c.38 0 .687-.295.687-.66V4.83a.287.287 0 00-.293-.281.287.287 0 00-.293.281v.986a.1.1 0 01-.101.098H11.42a.674.674 0 00-.687.66v1.971c0 .156.131.282.293.282z"/><path fill-rule="evenodd" clip-rule="evenodd" d="M15.919 15.801a.287.287 0 01-.293-.281c0-.155.131-.281.293-.281h.293v-1.257h-.293a.287.287 0 01-.293-.281c0-.156.131-.282.293-.282h.293V9.152c0-.49-.414-.888-.925-.888H11.32v.281a.287.287 0 01-.293.282.287.287 0 01-.293-.282v-.281H9.267v.281a.287.287 0 01-.293.282.287.287 0 01-.293-.282v-.281H4.712c-.51 0-.924.397-.924.888v6.747c0 .49.414.888.924.888h.339v-.281c0-.156.131-.282.293-.282.162 0 .293.126.293.282v.28h1.308v-.28c0-.156.131-.282.293-.282.162 0 .293.126.293.282v.28h4.938v-.28c0-.156.131-.282.293-.282.162 0 .293.126.293.282v.28h1.308v-.28c0-.156.131-.282.293-.282.162 0 .293.126.293.282v.28h.338c.511 0 .925-.396.925-.887v-.098h-.293zm-8.8-6.974h8.168c.188 0 .339.145.339.325v6.747c0 .18-.151.325-.338.325H4.711a.332.332 0 01-.338-.325V9.152c0-.18.151-.325.338-.325H7.12z"/><path d="M8.625 4.754a.28.28 0 01-.203.347.305.305 0 01-.07.01h.385c.51 0 .925-.396.925-.887V.888c0-.49-.414-.888-.925-.888H.924C.414 0 0 .398 0 .888v3.336c0 .49.414.888.924.888h.386a.305.305 0 01-.07-.01.28.28 0 01-.203-.348l.06-.205H.924a.332.332 0 01-.338-.325V.888c0-.18.152-.325.338-.325h7.813c.187 0 .339.146.339.325v3.336c0 .18-.152.325-.339.325h-.172l.06.205z"/><path d="M8.06 4.907l-.104-.358h-6.25l-.105.358a.291.291 0 01-.273.205H6.59V4.83c0-.155.13-.281.293-.281.162 0 .293.126.293.281v.282h1.158a.291.291 0 01-.273-.205zm10.903-.153a.28.28 0 01-.203.347.304.304 0 01-.07.01h.386c.51 0 .924-.396.924-.887V.888c0-.49-.414-.888-.924-.888h-7.813c-.51 0-.925.398-.925.888v3.336c0 .49.415.888.925.888h.385a.304.304 0 01-.07-.01.28.28 0 01-.203-.348l.06-.205h-.172a.332.332 0 01-.339-.325V.888c0-.18.152-.325.339-.325h7.813c.186 0 .338.145.338.325v3.336c0 .18-.152.325-.338.325h-.173l.06.205z"/><path d="M18.4 4.907l-.106-.358h-6.25l-.105.358a.291.291 0 01-.272.205h1.157V4.83c0-.155.132-.281.293-.281.162 0 .293.126.293.281v.282h5.262a.291.291 0 01-.273-.205z"/></g><defs><clipPath id="clip0_38_1505"><path fill="#fff" d="M0 0h20v18H0z"/></clipPath></defs></svg>
